fs/person_voice_20_filled.svg

<svg viewBox="0 0 20 20" fill="none" xmlns="http://www.w3.org/2000/svg" height="1em" width="1em">
  <path d="M15.8536 1.14645C15.6583 0.951184 15.3417 0.951184 15.1464 1.14645C14.9512 1.34171 14.9512 1.65829 15.1464 1.85355C16.2815 2.98857 16.875 4.72424 16.875 6.5C16.875 8.27576 16.2815 10.0114 15.1464 11.1464C14.9512 11.3417 14.9512 11.6583 15.1464 11.8536C15.3417 12.0488 15.6583 12.0488 15.8536 11.8536C17.2185 10.4886 17.875 8.47424 17.875 6.5C17.875 4.52576 17.2185 2.51143 15.8536 1.14645ZM13.8536 3.14645C13.6583 2.95118 13.3417 2.95118 13.1464 3.14645C12.9512 3.34171 12.9512 3.65829 13.1464 3.85355C13.7815 4.48857 14.125 5.47424 14.125 6.5C14.125 7.52576 13.7815 8.51143 13.1464 9.14645C12.9512 9.34171 12.9512 9.65829 13.1464 9.85355C13.3417 10.0488 13.6583 10.0488 13.8536 9.85355C14.7185 8.98857 15.125 7.72424 15.125 6.5C15.125 5.27576 14.7185 4.01143 13.8536 3.14645ZM4 7C4 4.79086 5.79086 3 8 3C10.2091 3 12 4.79086 12 7C12 9.20914 10.2091 11 8 11C5.79086 11 4 9.20914 4 7ZM1 14C1 12.8869 1.90315 12 3.00873 12L13 12C14.1045 12 15 12.8956 15 14C15 15.6912 14.1672 16.9663 12.865 17.7966C11.583 18.614 9.85474 19 8 19C6.14526 19 4.41697 18.614 3.13499 17.7966C1.83281 16.9663 1 15.6912 1 14Z" fill="#212121"/>
</svg>

<svg viewBox="0 0 20 20" fill="none" xmlns="http://www.w3.org/2000/svg" height="1em" width="1em">
  <path d="M15.854 1.146a.5.5 0 0 0-.708.708c1.136 1.135 1.729 2.87 1.729 4.646 0 1.776-.593 3.511-1.729 4.646a.5.5 0 0 0 .708.708c1.364-1.365 2.021-3.38 2.021-5.354 0-1.974-.657-3.989-2.021-5.354Zm-2 2a.5.5 0 0 0-.708.708c.635.635.979 1.62.979 2.646 0 1.026-.344 2.011-.979 2.646a.5.5 0 0 0 .708.708c.865-.865 1.271-2.13 1.271-3.354 0-1.224-.406-2.489-1.271-3.354ZM4 7a4 4 0 1 1 8 0 4 4 0 0 1-8 0Zm-3 7c0-1.113.903-2 2.009-2H13a2 2 0 0 1 2 2c0 1.691-.833 2.966-2.135 3.797C11.583 18.614 9.855 19 8 19c-1.855 0-3.583-.386-4.865-1.203C1.833 16.967 1 15.69 1 14Z" fill="#212121"/>
</svg>
